assets/illustrations/multisize/20/xml.svg

<svg id="9292a1f2-9251-4e86-9c9c-ba0e0a9a7be1" data-name="ICONS" xmlns="http://www.w3.org/2000/svg" viewBox="0 0 20 20"><title>FileTypeIcons_Master_All_NEW</title><polygon points="16 18 4 18 4 2 14 2 16 4 16 18" fill="#fff"/><path d="M14,1H3V19H17V4Zm0,1.5L15.5,4H14ZM16,18H4V2h9V5h3Z" fill="#949494"/><rect x="5" y="14" width="10" height="1" fill="#c8c8c8"/><rect x="5" y="16" width="10" height="1" fill="#c8c8c8"/><polygon points="14 11 13 11 14 9 13 7 14 7 15 9 14 11" fill="#949494"/><polygon points="6 11 7 11 6 9 7 7 6 7 5 9 6 11" fill="#949494"/><circle cx="10" cy="9" r="2" fill="#6caedf"/><path d="M11.01517,7.277l-.0127-.0073-.00074.00427Z" fill="#deebf8"/><path d="M8.955,8.85709c-.0252-.006.00766.10675.02764.118.05318-.00547-.01027-.04534.07487-.00041a.10152.10152,0,0,0,.07266.02226c-.002.00367.00105.00521.01622-.00245l.00026-.00106C9.16234,8.91638,9.0149,8.87047,8.955,8.85709Z" fill="#deebf8"/><path d="M8.8898,8.76625c-.01354-.05684-.09467-.21031-.16831-.1781-.01762.10013.07738.179.08775.21431C8.834,8.88792,8.94632,8.78166,8.8898,8.76625Z" fill="#deebf8"/><path d="M11.59653,7.79555l-.016-.01164c-.00415.05954.00465.15585-.06418.1494-.028-.00269-.04721.02129-.07224-.00195-.01778-.01639-.01974-.037-.04388-.044-.032-.09533-.10552-.0088-.11808.05766.0208.074-.082.08154-.08244.13758-.00033.03465-.02137.0565-.02381.09345-.00262.03857.05708.09662.04664.11318l-.03654.18814a.55933.55933,0,0,0,.009.23119c.02422.05544.09508.11433.08065.18756-.01118.05838.00995.14825.07739.15119a.72864.72864,0,0,0,.10308.07739c.003.02634.04175.058.06255.06606.05553.01524.06972.03685.10552-.02349.02389-.0403.11824-.06614.11057-.09125a.15025.15025,0,0,1,.14972-.14165c.04747-.00628.0442.1056.04764.13063a.34251.34251,0,0,0,.06256.07464C11.9978,9.09348,12,9.047,12,9A1.9909,1.9909,0,0,0,11.59653,7.79555Z" fill="#deebf8"/><path d="M10.52973,7.08563a.32487.32487,0,0,0-.16121-.00734c-.0831.01924.12249.12941.1511.15224.02472.01949.03058.042.05725.06344.0292-.00513.04151.01078.06606.0195.03368.01191.06955-.01338.10886.00065.032.01166.02545.04085.0323.06981.05692-.00955-.00066-.09-.01672-.11115-.02471-.03279-.08669-.02846-.11669-.06875.03979-.006.07657-.0535.08643.01721.03344.02364.05758.02463.08865.05545.017.01688.032-.00489.04257.00628.00725.02553.02193.06834-.00009.09362-.03009.03441-.00056.093.00253.13227-.00652.03343.03816.0875.00816.11645-.0221.02137.04656.03669.06165.04282.02552.01026.08946.06523.08611.09491-.00122.01134-.06916.04526-.08285.04591-.03335.00139.03262.08579.03694.09949.01664.03075.05676.05456.07021.08318.03262.06948.02765-.00481.06076.02219.02894.02381.06531-.00972.08464-.02912a.21262.21262,0,0,0,.00025-.09558c-.00832-.02308-.03067-.02128-.04517-.029a.55262.55262,0,0,1-.0093-.08317c-.00873-.04494-.03-.07413.00342-.12151.01737-.02471.1224.04029.14181.05823.02087.01933.04885-.06483-.02406-.07013-.02665-.02031-.0826-.03344-.093-.06386.02756-.05276.14116.1043.18765.07494.00586-.02781-.04388-.044-.04723-.078a.20423.20423,0,0,0-.01158-.05488c-.00815-.01536-.02182-.04729-.03547-.07173a2.00561,2.00561,0,0,0-.2485-.17306l-.01344-.003.00074-.00427a1.99324,1.99324,0,0,0-.21663-.10916c-.02376-.00448-.045-.00871-.06072-.0133C10.679,7.1339,10.57728,7.06719,10.52973,7.08563Z" fill="#deebf8"/><path d="M10.75294,7.46369c-.00033-.00221-.1905-.09053-.188-.08571.00261.005-.00546,0-.00089,0-.07087-.00653.07918.09614.0826.09662-.04429.0358-.0031.07862.02887.11189.02438.00032.04827-.06842.04827-.06842.02577.01134.08057.07469.11107.02984C10.87313,7.49174,10.789,7.46245,10.75294,7.46369Z" fill="#deebf8"/><path d="M9.671,10.70294c.06418-.0265.1251-.17573.19165-.19824.00546-.1273.18225-.0844.253-.10267a.16937.16937,0,0,0,.14092-.12576c.01223-.05.01868-.08872.07519-.10772.03792-.0362.11262-.09607.11025-.15306-.00163-.036.00612-.08783-.04925-.08236-.04983.005-.06043-.03922-.10243-.04478-.05366-.00693-.10781.00612-.15991.00311a.52932.52932,0,0,0-.10259-.04453c-.03075-.01-.086-.09656-.10609-.11638-.0292-.02886-.0623-.00815-.09819-.0079-.03172-.027.05089-.073.02357-.11026-.0416-.00872-.07429-.05267-.10838-.089a.55742.55742,0,0,0-.07071-.05163c-.06466-.012-.12345.01835-.17165-.03409-.00644-.007-.08089-.07216-.08089-.07216.00089-.00743.041-.019.00358-.02871-.01615-.02063-.02447-.03539-.051-.03588-.04518-.01966-.02651-.05945-.07992-.03808a.48936.48936,0,0,0-.06263.01394c-.02332-.01052-.02406-.04143-.05521-.03767-.05073.00628-.07682-.05391-.13162-.05252a.07486.07486,0,0,1-.06907.06989c-.04991-.001-.04526-.08849-.11221-.05538-.0314.0155-.00474.05139-.05855.05179-.0305.00025-.029.01337-.029.02414-.04247-.01289-.09043-.09175-.12353-.1366-.01468-.05357-.12591-.06573-.10708-.12713a.27474.27474,0,0,0,.00056-.18716c-.01238-.0185-.03123-.06173-.05242-.07216-.01827-.00914.01516-.01354.00571-.03793a.35619.35619,0,0,0,.06156-.16985c-.07461-.05424-.09394.03946-.14809.04346-.08815.00636-.08049-.046-.09157-.10153a.33784.33784,0,0,1,.012-.16065c.01476-.059.10014-.08326.10471-.15641.02528-.01052.07723-.03628.10568-.02593.03173.01149.06638.04444.09664.05341a.59568.59568,0,0,0,.09484.00628c.02144.0155.01484.03768.04672.041.02929.0031-.00285.04991-.00538.08-.00219.02617-.04412.15959.019.15649.04281-.002.073-.14932.07764-.18095.00775-.05269.06312-.082.10853-.10235.03728-.0168.13563-.03156.14745-.07429a.24171.24171,0,0,0,.02985-.066c.006-.01713.05227-.02031.06678-.02993.04363-.029.10684-.08229.162-.06654.03653.01036.08464-.065.13129-.07a1.1859,1.1859,0,0,1,.12338-.02047c-.0075.03441-.05724.02789-.057.06915.04191.02471.20215-.03759.12657-.05113-.08392-.01508-.03458-.13634-.04812-.1392-.06875-.01419-.001-.047.04338-.03816.02839.00562.09118.0411.11377.02511.10715-.07551.04134.06793.03954.08905a.22469.22469,0,0,0,.09208.03532c.01492-.01541.05324-.002.03913-.04037-.01826-.01746-.032-.00131-.048-.02716-.01916-.03091.01721-.0663.02316-.09834.00457-.02439.002-.03467-.02307-.04013-.00873-.01957.0115-.04314.00016-.062a.25521.25521,0,0,1-.05056-.10708c-.01672-.09867-.08538-.02316-.14132-.06956.03531-.03988-.0009-.07959-.02952-.09387-.03132-.01557-.07691-.04794-.09069.0115-.04256.02039-.05968.01623-.06907.06655-.01191.06418-.00563.03393-.043.05717-.05334.03319-.075-.00734-.09338.06922-.04591.01567-.11383.02024-.04428-.05047.0721-.07347-.15323-.13871-.0309-.22572.04314-.03059.10527-.02431.1401-.05072a.3924.3924,0,0,1,.061-.00857.10531.10531,0,0,0,.08839.02724c.03645-.00481.078-.04045.11384.00832.03393.04648.03116.06711.08946.06882.0871-.04607.15755-.02985.18463-.1423.02234-.09312-.14377-.08457-.20126-.11156-.0619-.02886.09165-.02879.09386-.03106L9.90119,7.0025a1.99124,1.99124,0,0,0-.56782.11174,1.398,1.398,0,0,0-.16557.07813c-.05318.02256-.10836.04714-.16345.07336a2.00727,2.00727,0,0,0-.834.92669.27118.27118,0,0,1-.00336.117.46405.46405,0,0,0,.01387.19637.50955.50955,0,0,0,.04541.14352c.01427.02373.05391-.01125.0752-.00146.03375.01549.04762.0658.0561.09231a.839.839,0,0,1,.03425.0831c.01492.01589.06474.00325.07013.02927a.09735.09735,0,0,0,.00619.063c.01567.03842-.01.1021.02024.1861a.205.205,0,0,0,.11946.12877c.02935.01475.03931.04974.06418.11.01215.02977.04656-.00628.048.04094A.34159.34159,0,0,1,8.7197,9.473c-.01306.04982-.114.07836-.10929.13887-.00366.02406.029.02994.03247.05073.00236.01443-.00213.03783-.00107.05309.00262.03538.04983.06181.07128.0879.0252.03067.03555.0774.0597.1079a.42277.42277,0,0,1,.09018.156,1.10594,1.10594,0,0,0,.17247.12182c.08123.0889.06875.37921.06614.50944a.28694.28694,0,0,0,.0113.09382,1.98562,1.98562,0,0,0,.36807.13906c.017-.0153.036-.03044.04248-.0366C9.57547,10.84581,9.60938,10.72863,9.671,10.70294Zm-.53284-3.059a.07373.07373,0,0,1,.14068-.04331c.02316.06157.06043.0955.05945.16872-.0005.031-.04167.04526-.05675.06981-.102-.01158-.053-.01786-.07316-.08571.00482.01876-.01606-.008-.00431-.00448-.03173-.01126-.07364.03857-.09208-.01737C9.09906,7.69071,9.14717,7.679,9.13819,7.64391Z" fill="#deebf8"/></svg>

<?xml version="1.0" encoding="utf-8"?>
<!-- Generator: Adobe Illustrator 21.1.0, SVG Export Plug-In . SVG Version: 6.00 Build 0)  -->
<svg version="1.1" xmlns="http://www.w3.org/2000/svg" xmlns:xlink="http://www.w3.org/1999/xlink" x="0px" y="0px"
	 viewBox="0 0 20 20" enable-background="new 0 0 20 20" xml:space="preserve">
<g id="TEMPLATE" display="none">
	<g display="inline">
		<path fill="#D0D0D0" d="M20,0v20H0V0H20 M21-1h-1H0h-1v1v20v1h1h20h1v-1V0V-1L21-1z"/>
	</g>
	<g display="inline" opacity="0.1">
		<path fill="#FF3A6D" d="M19,1v18H1V1H19 M20,0H0v20h20V0L20,0z"/>
	</g>
</g>
<g id="ICONS">
	<g>
		<polygon fill="#FFFFFF" points="16,18 4,18 4,2 14,2 16,4 		"/>
		<path fill="#949494" d="M14,1H3v18h14V4L14,1z M14,2.5L15.5,4H14V2.5z M16,18H4V2h9v3h3V18z"/>
	</g>
	<rect x="5" y="14" fill="#C8C8C8" width="10" height="1"/>
	<rect x="5" y="16" fill="#C8C8C8" width="10" height="1"/>
	<polygon fill="#949494" points="14,11 13,11 14,9 13,7 14,7 15,9 	"/>
	<polygon fill="#949494" points="6,11 7,11 6,9 7,7 6,7 5,9 	"/>
	<g>
		<circle fill="#6CAEDF" cx="10" cy="9" r="2"/>
		<g>
			<path fill="#DEEBF8" d="M11.0152,7.2769c-0.0042-0.0025-0.0085-0.0048-0.0127-0.0073c-0.0004,0.0015-0.0002,0.0028-0.0007,0.0043
				C11.0066,7.2747,11.0106,7.276,11.0152,7.2769z"/>
			<path fill="#DEEBF8" d="M8.955,8.8571c-0.0252-0.006,0.0077,0.1067,0.0276,0.118c0.0532-0.0055-0.0103-0.0453,0.0749-0.0004
				c0.0224,0.0171,0.0467,0.0246,0.0727,0.0223c-0.002,0.0037,0.0011,0.0052,0.0162-0.0024
				C9.1465,8.994,9.1466,8.9934,9.1466,8.9934C9.1623,8.9164,9.0149,8.8705,8.955,8.8571z"/>
			<path fill="#DEEBF8" d="M8.8898,8.7663C8.8763,8.7094,8.7951,8.5559,8.7215,8.5881c-0.0176,0.1001,0.0774,0.179,0.0878,0.2143
				C8.834,8.8879,8.9463,8.7817,8.8898,8.7663z"/>
			<path fill="#DEEBF8" d="M11.5965,7.7956c-0.0054-0.0037-0.0106-0.0084-0.016-0.0116c-0.0042,0.0595,0.0047,0.1558-0.0642,0.1494
				c-0.028-0.0027-0.0472,0.0213-0.0722-0.002c-0.0178-0.0164-0.0197-0.037-0.0439-0.044c-0.032-0.0953-0.1055-0.0088-0.1181,0.0577
				c0.0208,0.074-0.082,0.0815-0.0824,0.1376c-0.0003,0.0347-0.0214,0.0565-0.0238,0.0934
				c-0.0026,0.0386,0.0571,0.0966,0.0466,0.1132L11.186,8.4774c-0.0174,0.0225-0.0064,0.196,0.009,0.2312
				c0.0242,0.0554,0.0951,0.1143,0.0806,0.1876c-0.0112,0.0584,0.0099,0.1483,0.0774,0.1512
				c0.0341,0.0308,0.0608,0.0499,0.1031,0.0774c0.003,0.0263,0.0418,0.058,0.0625,0.0661c0.0555,0.0152,0.0697,0.0369,0.1055-0.0235
				c0.0239-0.0403,0.1182-0.0661,0.1106-0.0913c0.0171-0.0986,0.0667-0.1306,0.1497-0.1416
				C11.9319,8.9281,11.9286,9.04,11.932,9.065c0.0007,0.0048,0.032,0.0475,0.0626,0.0746C11.9978,9.0935,12,9.047,12,9
				C12,8.5477,11.8497,8.1306,11.5965,7.7956z"/>
			<path fill="#DEEBF8" d="M10.5297,7.0856c-0.0663-0.0086-0.0834-0.0253-0.1612-0.0073c-0.0831,0.0192,0.1225,0.1294,0.1511,0.1522
				c0.0247,0.0195,0.0306,0.042,0.0572,0.0634c0.0292-0.0051,0.0415,0.0108,0.0661,0.0195
				c0.0337,0.0119,0.0696-0.0134,0.1089,0.0006c0.032,0.0117,0.0254,0.0409,0.0323,0.0698c0.0569-0.0095-0.0007-0.09-0.0167-0.1111
				C10.7427,7.24,10.6807,7.2443,10.6507,7.204c0.0398-0.006,0.0766-0.0535,0.0864,0.0172
				c0.0334,0.0236,0.0576,0.0246,0.0886,0.0555c0.017,0.0169,0.032-0.0049,0.0426,0.0063c0.0073,0.0255,0.0219,0.0683-0.0001,0.0936
				c-0.0301,0.0344-0.0006,0.0931,0.0025,0.1323c-0.0065,0.0334,0.0382,0.0875,0.0082,0.1164
				c-0.0221,0.0214,0.0466,0.0367,0.0616,0.0428c0.0255,0.0103,0.0895,0.0652,0.0861,0.0949
				c-0.0012,0.0113-0.0692,0.0453-0.0828,0.0459c-0.0334,0.0014,0.0326,0.0858,0.0369,0.0995
				c0.0166,0.0307,0.0568,0.0546,0.0702,0.0832c0.0326,0.0695,0.0276-0.0048,0.0608,0.0222
				c0.0289,0.0238,0.0653-0.0097,0.0846-0.0291c0.0063-0.0241,0.0085-0.0732,0.0003-0.0956
				c-0.0083-0.0231-0.0307-0.0213-0.0452-0.029c-0.0086-0.0211-0.0047-0.0599-0.0093-0.0832
				c-0.0087-0.0449-0.03-0.0741,0.0034-0.1215c0.0174-0.0247,0.1224,0.0403,0.1418,0.0582
				c0.0209,0.0193,0.0489-0.0648-0.0241-0.0701c-0.0267-0.0203-0.0826-0.0334-0.093-0.0639
				c0.0276-0.0528,0.1412,0.1043,0.1876,0.0749c0.0059-0.0278-0.0439-0.044-0.0472-0.078
				c-0.0011-0.0106-0.0049-0.0426-0.0116-0.0549C11.291,7.5064,11.2773,7.4744,11.2637,7.45
				c-0.0781-0.0638-0.1612-0.1215-0.2485-0.1731c-0.0046-0.0009-0.0086-0.0022-0.0134-0.003
				c0.0005-0.0015,0.0004-0.0028,0.0007-0.0043c-0.0697-0.0405-0.1419-0.0772-0.2166-0.1092
				c-0.0238-0.0045-0.045-0.0087-0.0607-0.0133C10.679,7.1339,10.5773,7.0672,10.5297,7.0856z"/>
			<path fill="#DEEBF8" d="M10.7529,7.4637c-0.0003-0.0022-0.1905-0.0905-0.188-0.0857c0.0026,0.0051-0.0055,0-0.0009,0
				c-0.0709-0.0065,0.0792,0.0961,0.0826,0.0966c-0.0443,0.0358-0.0031,0.0786,0.0289,0.1119
				c0.0244,0.0003,0.0483-0.0684,0.0483-0.0684c0.0258,0.0113,0.0806,0.0747,0.1111,0.0298
				C10.8731,7.4917,10.789,7.4625,10.7529,7.4637z"/>
			<path fill="#DEEBF8" d="M9.671,10.7029c0.0642-0.0265,0.1251-0.1757,0.1916-0.1982c0.0055-0.1273,0.1823-0.0844,0.253-0.1027
				c0.0786-0.0198,0.1248-0.0592,0.1409-0.1258c0.0122-0.05,0.0187-0.0887,0.0752-0.1077c0.0379-0.0362,0.1126-0.0961,0.1102-0.1531
				c-0.0016-0.036,0.0061-0.0878-0.0492-0.0824c-0.0498,0.005-0.0604-0.0392-0.1024-0.0448
				c-0.0537-0.0069-0.1078,0.0061-0.1599,0.0031c-0.0433-0.0231-0.0586-0.0298-0.1026-0.0445
				c-0.0307-0.01-0.086-0.0966-0.1061-0.1164C9.8926,9.7017,9.8595,9.7224,9.8236,9.7226c-0.0317-0.027,0.0509-0.073,0.0236-0.1103
				c-0.0416-0.0087-0.0743-0.0527-0.1084-0.089C9.7339,9.5182,9.6755,9.4732,9.6681,9.4718
				c-0.0647-0.012-0.1235,0.0183-0.1717-0.0341C9.49,9.4307,9.4156,9.3655,9.4156,9.3655c0.0009-0.0074,0.041-0.019,0.0036-0.0287
				C9.403,9.3162,9.3947,9.3015,9.3682,9.301C9.323,9.2813,9.3417,9.2415,9.2882,9.2629C9.2814,9.2606,9.2331,9.2761,9.2256,9.2768
				C9.2023,9.2663,9.2016,9.2354,9.1704,9.2392C9.1197,9.2454,9.0936,9.1852,9.0388,9.1866
				C9.0351,9.2243,9.0042,9.2573,8.9697,9.2565C8.9198,9.2555,8.9245,9.168,8.8575,9.2011C8.8261,9.2166,8.8528,9.2525,8.799,9.2529
				C8.7685,9.2532,8.77,9.2663,8.77,9.2771C8.7275,9.2642,8.6796,9.1853,8.6465,9.1405C8.6318,9.0869,8.5206,9.0747,8.5394,9.0133
				C8.5531,8.9685,8.5701,8.8709,8.54,8.8262C8.5276,8.8077,8.5087,8.7645,8.4875,8.754C8.4693,8.7449,8.5027,8.7405,8.4932,8.7161
				C8.5169,8.6937,8.56,8.5802,8.5548,8.5462C8.4802,8.492,8.4609,8.5857,8.4067,8.5897c-0.0881,0.0064-0.0805-0.046-0.0916-0.1015
				C8.304,8.4339,8.3118,8.3886,8.3271,8.3275c0.0148-0.059,0.1001-0.0833,0.1047-0.1564c0.0253-0.0105,0.0772-0.0363,0.1057-0.0259
				c0.0317,0.0115,0.0664,0.0444,0.0966,0.0534c0.0183,0.0055,0.074,0.0057,0.0948,0.0063c0.0214,0.0155,0.0148,0.0377,0.0467,0.041
				c0.0293,0.0031-0.0029,0.0499-0.0054,0.08c-0.0022,0.0262-0.0441,0.1596,0.019,0.1565c0.0428-0.002,0.073-0.1493,0.0776-0.181
				c0.0077-0.0527,0.0631-0.082,0.1085-0.1024C9.0128,8.1823,9.1111,8.1675,9.123,8.1248c0.0156-0.0236,0.0195-0.0364,0.0298-0.066
				c0.006-0.0171,0.0523-0.0203,0.0668-0.0299c0.0436-0.029,0.1068-0.0823,0.162-0.0665c0.0365,0.0104,0.0846-0.065,0.1313-0.07
				c0.0366-0.0039,0.0879-0.0212,0.1234-0.0205C9.6287,7.9063,9.579,7.8998,9.5792,7.9411
				c0.0419,0.0247,0.2021-0.0376,0.1266-0.0511C9.6219,7.8748,9.6712,7.7536,9.6577,7.7507
				C9.5889,7.7365,9.6567,7.7037,9.701,7.7126c0.0284,0.0056,0.0912,0.0411,0.1138,0.0251C9.922,7.6622,9.8561,7.8056,9.8544,7.8267
				C9.8538,7.8339,9.9406,7.8681,9.9464,7.862c0.0149-0.0154,0.0532-0.002,0.0391-0.0404c-0.0183-0.0175-0.032-0.0013-0.048-0.0272
				C9.9184,7.7636,9.9547,7.7282,9.9607,7.6962c0.0046-0.0244,0.002-0.0347-0.0231-0.0401C9.9289,7.6365,9.9491,7.6129,9.9378,7.594
				C9.9131,7.5525,9.8959,7.5379,9.8872,7.4869C9.8705,7.3883,9.8018,7.4638,9.7459,7.4174
				C9.7812,7.3775,9.745,7.3378,9.7164,7.3235C9.6851,7.3079,9.6395,7.2755,9.6257,7.335C9.5831,7.3554,9.566,7.3512,9.5566,7.4015
				C9.5447,7.4657,9.551,7.4355,9.5136,7.4587c-0.0533,0.0332-0.075-0.0073-0.0934,0.0692C9.3744,7.5436,9.3064,7.5482,9.376,7.4775
				C9.4481,7.404,9.2228,7.3387,9.3451,7.2517C9.3882,7.2212,9.4504,7.2274,9.4852,7.201c0.0261-0.0018,0.0243-0.0085,0.061-0.0086
				c0.0194,0.0228,0.059,0.0312,0.0884,0.0272C9.671,7.2149,9.7126,7.1792,9.7484,7.228c0.0339,0.0465,0.0312,0.0671,0.0895,0.0688
				C9.925,7.2508,9.9954,7.267,10.0225,7.1545C10.0449,7.0614,9.8787,7.07,9.8212,7.043C9.7593,7.0141,9.9129,7.0142,9.9151,7.0119
				L9.9012,7.0025C9.7029,7.0121,9.5124,7.051,9.3334,7.1142c-0.0552,0.022-0.1105,0.0474-0.1656,0.0781
				C9.1146,7.2149,9.0594,7.2395,9.0044,7.2657C8.6368,7.4772,8.343,7.8019,8.1703,8.1924C8.1713,8.234,8.183,8.2711,8.167,8.3094
				c-0.0188,0.0457,0.005,0.1575,0.0139,0.1964c0.0101,0.0445,0.021,0.1033,0.0454,0.1435C8.2405,8.673,8.2801,8.6381,8.3014,8.6478
				c0.0338,0.0155,0.0476,0.0658,0.0561,0.0923c0.0113,0.0356,0.0276,0.0504,0.0342,0.0831
				c0.0149,0.0159,0.0647,0.0033,0.0701,0.0293c-0.0024,0.0298-0.0055,0.0351,0.0062,0.063c0.0157,0.0384-0.01,0.1021,0.0202,0.1861
				c0.0273,0.0756,0.0656,0.1016,0.1195,0.1288c0.0294,0.0147,0.0393,0.0497,0.0642,0.11c0.0121,0.0298,0.0466-0.0063,0.0479,0.0409
				c0.0008,0.0285,0.0072,0.0635-0.0002,0.0916c-0.0131,0.0498-0.114,0.0784-0.1093,0.1389
				c-0.0037,0.0241,0.029,0.0299,0.0325,0.0507C8.6452,9.677,8.6408,9.7004,8.6418,9.7156C8.6444,9.751,8.6916,9.7775,8.7131,9.8035
				c0.0252,0.0307,0.0356,0.0774,0.0597,0.1079c0.0393,0.0497,0.0749,0.096,0.0902,0.156c0.004,0.0157,0.1682,0.1224,0.1725,0.1218
				c0.0812,0.0889,0.0687,0.3792,0.0661,0.5094c-0.0008,0.0389,0.0034,0.0693,0.0113,0.0938
				c0.1167,0.0579,0.2398,0.1047,0.3681,0.1391c0.017-0.0153,0.036-0.0304,0.0425-0.0366
				C9.5755,10.8458,9.6094,10.7286,9.671,10.7029z M9.1382,7.6439C9.1141,7.5498,9.2484,7.5182,9.2789,7.6006
				C9.302,7.6622,9.3393,7.6961,9.3383,7.7693c-0.0005,0.031-0.0417,0.0453-0.0568,0.0698
				c-0.1019-0.0116-0.053-0.0179-0.0732-0.0857c0.0048,0.0188-0.0161-0.008-0.0043-0.0045C9.1724,7.7377,9.1305,7.7875,9.112,7.7316
				C9.0991,7.6907,9.1472,7.679,9.1382,7.6439z"/>
		</g>
	</g>
</g>
</svg>
